X: 135016
T: The BANKS OF AVONMORE
Q: "Irish Reel."
R: Reel.
%R: reel
B: James Kerr "Merry Melodies" v.1 p.35 s.0 #16
Z: 2016 John Chambers <jc:trillian.mit.edu>
M: 2/4
L: 1/16
K: G
(dc) !segno!|:\
BGGG G3uc | BGGA Bdgd |\
BGGG G3uB | AGFG ABcd :|\
Bddd d3c | Bdef gfgd |
Bddd d3B | AGFG ABcd |\
Bddd d3c | Bdef gfga |\
bgaf gfec | AGFG ABcd |]

%%sep 1 1 500
%%sep 1 1 500

